packages/icon/src/svg/question.icon.svg

<?xml version="1.0" encoding="UTF-8"?>
<svg width="24px" height="24px" viewBox="0 0 24 24" version="1.1" xmlns="http://www.w3.org/2000/svg" xmlns:xlink="http://www.w3.org/1999/xlink">
    <!-- Generator: Sketch 46.1 (44463) - http://www.bohemiancoding.com/sketch -->
    <title>Icon/question.icon</title>
    <desc>Created with Sketch.</desc>
    <defs>
        <path d="M11,15 L13,15 L13,17 L11,17 L11,15 Z M9,10.409225 C9.00902455,9.92189953 9,8.64944741 9.71733798,8.01322013 C10.434676,7.37699285 10.3445387,7.48303156 10.746131,7.31607747 C11.1477233,7.14912338 11.5966877,7.06564759 12.0930377,7.06564759 C12.7337804,7.06564759 13.2684767,7.15363559 13.6971427,7.32961422 C14.1258086,7.50559286 14.4709923,7.72443481 14.7327041,7.98614663 C14.9944159,8.24785845 15.1816724,8.52987127 15.2944792,8.83219354 C15.407286,9.13451582 15.4636886,9.41652863 15.4636886,9.67824045 C15.4636886,10.1114186 15.407286,10.4678828 15.2944792,10.7476438 C15.1816724,11.0274047 15.0417941,11.2665515 14.87484,11.4650915 C14.7078859,11.6636315 14.5228855,11.8328392 14.3198332,11.9727197 C14.1167809,12.1126001 13.9250122,12.2524785 13.7445213,12.392359 C13.5640304,12.5322394 13.4038471,12.6924227 13.2639666,12.8729136 C13.1240862,13.0534045 13,13.0995023 13,14 L11,14 C11,13.0995023 11.2740637,12.7420597 11.3958951,12.4803478 C11.5177264,12.218636 11.6598609,11.9952819 11.8223027,11.8102787 C11.9847445,11.6252755 12.1562083,11.4650922 12.3366992,11.329724 C12.5171901,11.1943558 12.6841417,11.0589897 12.837559,10.9236215 C12.9909763,10.7882533 13.1150619,10.6393506 13.2098196,10.4769087 C13.3045774,10.3144669 13.3474433,10.1114177 13.3384188,9.86775496 C13.3384188,9.45262587 13.2368942,9.14579592 13.0338419,8.94725592 C12.8307896,8.74871592 12.5487768,8.64944741 12.187795,8.64944741 C11.9441322,8.64944741 11.7343147,8.69682556 11.5583361,8.79158329 C11.3823574,8.88634102 11.2379669,9.01268276 11.12516,9.17061231 C11.0123532,9.32854185 10.9288774,9.51354226 10.8747302,9.72561908 C10.8205829,9.9376959 10.7935097,10.1655623 10.7935097,10.409225 L9,10.409225 Z M12,2 C6.48,2 2,6.48 2,12 C2,17.52 6.48,22 12,22 C17.52,22 22,17.52 22,12 C22,6.48 17.52,2 12,2 Z M12,20 C7.59,20 4,16.41 4,12 C4,7.59 7.59,4 12,4 C16.41,4 20,7.59 20,12 C20,16.41 16.41,20 12,20 Z" id="path-1"></path>
    </defs>
    <g id="Symbols" stroke="none" stroke-width="1" fill="none" fill-rule="evenodd">
        <g id="Icon/question">
            <mask id="mask-2" fill="white">
                <use xlink:href="#path-1"></use>
            </mask>
            <use id="Shape" fill="#000000" fill-rule="nonzero" xlink:href="#path-1"></use>
            <g id="Color/Neutral/White" mask="url(#mask-2)" fill="#FFFFFF">
                <rect id="222222-Fill" x="0" y="0" width="24" height="24"></rect>
            </g>
        </g>
    </g>
</svg>

<svg viewBox="0 0 24 24" xmlns="http://www.w3.org/2000/svg"><path d="M11 15h2v2h-2v-2zm-2-4.5908c.009-.4873 0-1.7598.7173-2.396.7174-.6362.6272-.5302 1.0288-.697.4018-.167.8508-.2506 1.347-.2506.641 0 1.1756.088 1.604.264.429.176.774.3948 1.0358.6565.2617.262.449.544.5618.8463.1128.3023.1692.5843.1692.846 0 .4332-.0564.7897-.1692 1.0694-.1128.2798-.2527.519-.4197.7175-.167.1986-.352.3678-.555.5077-.203.14-.395.2797-.5754.4196-.1805.1398-.3407.3-.4805.4805-.14.1805-.264.2266-.264 1.127h-2c0-.9004.274-1.258.396-1.5196.1218-.2617.264-.485.4264-.67.1624-.185.334-.3452.5144-.4806.1805-.1353.3474-.2707.501-.406.1533-.1354.2774-.2843.372-.4468.095-.1625.1377-.3656.1287-.6092 0-.4152-.1015-.722-.3046-.9205-.203-.1986-.485-.298-.846-.298-.2438 0-.4536.0475-.6296.1423-.176.0947-.3203.221-.433.379-.113.158-.1964.343-.2506.555-.054.212-.0812.44-.0812.6836H9zM12 2C6.48 2 2 6.48 2 12s4.48 10 10 10 10-4.48 10-10S17.52 2 12 2zm0 18c-4.41 0-8-3.59-8-8s3.59-8 8-8 8 3.59 8 8-3.59 8-8 8z" /></svg>
